images/customer-logo/olympia-london.svg

<?xml version="1.0" encoding="UTF-8" standalone="no"?>
<svg
   xmlns:dc="http://purl.org/dc/elements/1.1/"
   xmlns:cc="http://creativecommons.org/ns#"
   xmlns:rdf="http://www.w3.org/1999/02/22-rdf-syntax-ns#"
   xmlns:svg="http://www.w3.org/2000/svg"
   xmlns="http://www.w3.org/2000/svg"
   xmlns:sodipodi="http://sodipodi.sourceforge.net/DTD/sodipodi-0.dtd"
   xmlns:inkscape="http://www.inkscape.org/namespaces/inkscape"
   width="105.67463"
   height="95.312073"
   viewBox="0 0 105.67463 95.312073"
   version="1.1"
   xml:space="preserve"
   style="clip-rule:evenodd;fill-rule:evenodd;stroke-linejoin:round;stroke-miterlimit:2"
   id="svg18"
   sodipodi:docname="olympia-london.svg"
   inkscape:version="0.92.5 (0.92.5+69)"><metadata
   id="metadata22"><rdf:RDF><cc:Work
       rdf:about=""><dc:format>image/svg+xml</dc:format><dc:type
         rdf:resource="http://purl.org/dc/dcmitype/StillImage" /></cc:Work></rdf:RDF></metadata><sodipodi:namedview
   pagecolor="#ffffff"
   bordercolor="#666666"
   borderopacity="1"
   objecttolerance="10"
   gridtolerance="10"
   guidetolerance="10"
   inkscape:pageopacity="0"
   inkscape:pageshadow="2"
   inkscape:window-width="822"
   inkscape:window-height="480"
   id="namedview20"
   showgrid="false"
   inkscape:zoom="1.36"
   inkscape:cx="42.721525"
   inkscape:cy="47.192124"
   inkscape:window-x="0"
   inkscape:window-y="27"
   inkscape:window-maximized="0"
   inkscape:current-layer="svg18" />
    
    <g
   id="g833"
   transform="translate(-3.2343575,-1.88005)"><g
     transform="matrix(0.585455,0,0,0.585455,-47.4075,-27.3927)"
     id="olympia-arc">
        <path
   id="path2"
   style="fill:url(#_Linear1);fill-rule:nonzero"
   d="m 87,140 c 0,-49.6 40.4,-90 90,-90 49.5,0 89.8,40.2 90,89.6 v 0.4 h -36.8 c 0,-29.3 -23.9,-53.2 -53.2,-53.2 -29.3,0 -53.2,23.9 -53.2,53.2 z"
   inkscape:connector-curvature="0" />
    </g><g
     id="g7"
     transform="matrix(0.585455,0,0,0.585455,-47.4075,-27.3927)">
        <path
   id="path5"
   style="fill:#66cdd6;fill-rule:nonzero"
   d="m 170.2,200 c 0.7,-0.7 2.1,-1.6 4.1,-1.6 2,0 3.8,0.9 5,2.4 0.9,1.1 1.3,2.5 1.3,4.9 v 6.7 h -2.8 v -6.9 c 0,-1.8 -0.3,-2.6 -0.8,-3.2 -0.6,-0.8 -1.7,-1.3 -2.8,-1.3 -1.8,0 -3.1,1 -4,2 v 9.4 h -2.8 v -13.7 h 2.7 z m -12.6,10.1 c 2.5,0 4.3,-2 4.3,-4.5 0,-2.5 -1.8,-4.5 -4.3,-4.5 -2.5,0 -4.3,2 -4.3,4.5 -0.1,2.5 1.7,4.5 4.3,4.5 m 0,-11.7 c 4.1,0 7.1,3.1 7.1,7.2 0,4.1 -3,7.2 -7.1,7.2 -4.1,0 -7.1,-3.1 -7.1,-7.2 0,-4.1 3,-7.2 7.1,-7.2 m -12.8,4.6 c -0.8,-1.1 -2.3,-2 -3.9,-2 -2.7,0 -4.4,2.1 -4.4,4.5 0,2.5 1.9,4.5 4.6,4.5 1.4,0 2.8,-0.7 3.8,-2 z m 0.1,8.2 c -1.1,1 -2.6,1.6 -4.2,1.6 -1.2,0 -2.5,-0.3 -3.5,-0.9 -2.1,-1.2 -3.5,-3.5 -3.5,-6.3 0,-2.8 1.5,-5.1 3.5,-6.3 0.9,-0.6 2.1,-0.9 3.4,-0.9 1.5,0 3,0.5 4.2,1.5 v -8.2 h 2.8 v 20.7 h -2.7 z M 120.7,200 c 0.7,-0.7 2.1,-1.6 4.1,-1.6 2,0 3.8,0.9 5,2.4 0.9,1.1 1.3,2.5 1.3,4.9 v 6.7 h -2.8 v -6.9 c 0,-1.8 -0.3,-2.6 -0.8,-3.2 -0.6,-0.8 -1.7,-1.3 -2.8,-1.3 -1.8,0 -3.1,1 -4,2 v 9.4 H 118 v -13.7 h 2.7 z m -12.6,10.1 c 2.5,0 4.3,-2 4.3,-4.5 0,-2.5 -1.8,-4.5 -4.3,-4.5 -2.5,0 -4.3,2 -4.3,4.5 0,2.5 1.8,4.5 4.3,4.5 m 0,-11.7 c 4.1,0 7.1,3.1 7.1,7.2 0,4.1 -3,7.2 -7.1,7.2 -4.1,0 -7.1,-3.1 -7.1,-7.2 0,-4.1 3,-7.2 7.1,-7.2 m -17.4,11.3 h 9 v 2.8 H 87.8 v -20.4 h 2.9 z M 246.6,172 h 9.9 l -5,-11.9 z m 11.7,4.4 h -13.5 l -3.4,8.3 h -4.8 l 13.3,-32.1 h 3.2 l 13.3,32.1 h -4.8 z m -28.7,8.2 h 4.6 v -32.1 h -4.6 z M 215.5,166 c 2.2,0 3.4,-0.6 4.2,-1.4 0.8,-0.8 1.3,-1.9 1.3,-3.2 0,-1.2 -0.5,-2.4 -1.3,-3.2 -0.8,-0.9 -2,-1.4 -4.2,-1.4 h -7.4 v 9.1 z m -7.4,4.4 v 14.2 h -4.6 v -32.1 h 12.1 c 3.1,0 5.2,0.8 6.7,2.1 1.9,1.7 3.2,4.1 3.2,6.9 0,2.8 -1.2,5.2 -3.2,6.9 -1.6,1.3 -3.6,2.1 -6.7,2.1 h -7.5 z m -23.1,7.4 h -3.3 l -9.4,-14.7 v 21.6 h -4.5 v -32.1 h 3.2 l 12.4,19.6 12.4,-19.6 h 3.2 v 32.1 h -4.7 V 163 Z m -32.2,-7.9 v 14.7 h -4.6 v -14.7 l -11,-17.4 h 5.2 l 8.2,12.9 8.2,-12.9 h 5.2 z m -25.1,10.3 h 14.2 v 4.4 h -18.8 v -32.1 h 4.6 z m -25.1,0.5 c 6.6,0 11.4,-5.2 11.4,-12.1 0,-7 -4.9,-12.1 -11.4,-12.1 -6.6,0 -11.4,5.3 -11.4,12.1 -0.1,7 4.8,12.1 11.4,12.1 z m 0,-28.7 c 9,0 16.1,7.2 16.1,16.5 0,9.3 -7,16.5 -16.1,16.5 -9.1,0 -16.1,-7.2 -16.1,-16.5 0,-9.3 7,-16.5 16.1,-16.5 z"
   inkscape:connector-curvature="0" />
    </g></g>
    <defs
   id="defs16">
        <linearGradient
   id="_Linear1"
   x1="0"
   y1="0"
   x2="1"
   y2="0"
   gradientUnits="userSpaceOnUse"
   gradientTransform="matrix(0,87.8441,-87.8441,0,177.006,52.1535)"><stop
     offset="0"
     style="stop-color:rgb(0,171,189);stop-opacity:1"
     id="stop9" /><stop
     offset="0.74"
     style="stop-color:rgb(195,177,214);stop-opacity:1"
     id="stop11" /><stop
     offset="1"
     style="stop-color:rgb(195,177,214);stop-opacity:0"
     id="stop13" /></linearGradient>
    </defs>
</svg>

<?xml version="1.0" encoding="UTF-8" standalone="no"?>
<!DOCTYPE svg PUBLIC "-//W3C//DTD SVG 1.1//EN" "http://www.w3.org/Graphics/SVG/1.1/DTD/svg11.dtd">
<svg width="100%" height="100%" viewBox="0 0 300 100" version="1.1" xmlns="http://www.w3.org/2000/svg" xmlns:xlink="http://www.w3.org/1999/xlink" xml:space="preserve" xmlns:serif="http://www.serif.com/" style="fill-rule:evenodd;clip-rule:evenodd;stroke-linejoin:round;stroke-miterlimit:2;">
    <g id="olympia-arc" transform="matrix(0.585455,0,0,0.585455,-47.4075,-27.3927)">
        <path d="M87,140C87,90.4 127.4,50 177,50C226.5,50 266.8,90.2 267,139.6L267,140L230.2,140C230.2,110.7 206.3,86.8 177,86.8C147.7,86.8 123.8,110.7 123.8,140L87,140Z" style="fill:url(#_Linear1);fill-rule:nonzero;"/>
    </g>
    <g transform="matrix(0.585455,0,0,0.585455,-47.4075,-27.3927)">
        <path d="M170.2,200C170.9,199.3 172.3,198.4 174.3,198.4C176.3,198.4 178.1,199.3 179.3,200.8C180.2,201.9 180.6,203.3 180.6,205.7L180.6,212.4L177.8,212.4L177.8,205.5C177.8,203.7 177.5,202.9 177,202.3C176.4,201.5 175.3,201 174.2,201C172.4,201 171.1,202 170.2,203L170.2,212.4L167.4,212.4L167.4,198.7L170.1,198.7L170.2,200ZM157.6,210.1C160.1,210.1 161.9,208.1 161.9,205.6C161.9,203.1 160.1,201.1 157.6,201.1C155.1,201.1 153.3,203.1 153.3,205.6C153.2,208.1 155,210.1 157.6,210.1M157.6,198.4C161.7,198.4 164.7,201.5 164.7,205.6C164.7,209.7 161.7,212.8 157.6,212.8C153.5,212.8 150.5,209.7 150.5,205.6C150.5,201.5 153.5,198.4 157.6,198.4M144.8,203C144,201.9 142.5,201 140.9,201C138.2,201 136.5,203.1 136.5,205.5C136.5,208 138.4,210 141.1,210C142.5,210 143.9,209.3 144.9,208L144.8,203ZM144.9,211.2C143.8,212.2 142.3,212.8 140.7,212.8C139.5,212.8 138.2,212.5 137.2,211.9C135.1,210.7 133.7,208.4 133.7,205.6C133.7,202.8 135.2,200.5 137.2,199.3C138.1,198.7 139.3,198.4 140.6,198.4C142.1,198.4 143.6,198.9 144.8,199.9L144.8,191.7L147.6,191.7L147.6,212.4L144.9,212.4L144.9,211.2ZM120.7,200C121.4,199.3 122.8,198.4 124.8,198.4C126.8,198.4 128.6,199.3 129.8,200.8C130.7,201.9 131.1,203.3 131.1,205.7L131.1,212.4L128.3,212.4L128.3,205.5C128.3,203.7 128,202.9 127.5,202.3C126.9,201.5 125.8,201 124.7,201C122.9,201 121.6,202 120.7,203L120.7,212.4L118,212.4L118,198.7L120.7,198.7L120.7,200ZM108.1,210.1C110.6,210.1 112.4,208.1 112.4,205.6C112.4,203.1 110.6,201.1 108.1,201.1C105.6,201.1 103.8,203.1 103.8,205.6C103.8,208.1 105.6,210.1 108.1,210.1M108.1,198.4C112.2,198.4 115.2,201.5 115.2,205.6C115.2,209.7 112.2,212.8 108.1,212.8C104,212.8 101,209.7 101,205.6C101,201.5 104,198.4 108.1,198.4M90.7,209.7L99.7,209.7L99.7,212.5L87.8,212.5L87.8,192.1L90.7,192.1L90.7,209.7ZM246.6,172L256.5,172L251.5,160.1L246.6,172ZM258.3,176.4L244.8,176.4L241.4,184.7L236.6,184.7L249.9,152.6L253.1,152.6L266.4,184.7L261.6,184.7L258.3,176.4ZM229.6,184.6L234.2,184.6L234.2,152.5L229.6,152.5L229.6,184.6ZM215.5,166C217.7,166 218.9,165.4 219.7,164.6C220.5,163.8 221,162.7 221,161.4C221,160.2 220.5,159 219.7,158.2C218.9,157.3 217.7,156.8 215.5,156.8L208.1,156.8L208.1,165.9L215.5,166ZM208.1,170.4L208.1,184.6L203.5,184.6L203.5,152.5L215.6,152.5C218.7,152.5 220.8,153.3 222.3,154.6C224.2,156.3 225.5,158.7 225.5,161.5C225.5,164.3 224.3,166.7 222.3,168.4C220.7,169.7 218.7,170.5 215.6,170.5L208.1,170.5L208.1,170.4ZM185,177.8L181.7,177.8L172.3,163.1L172.3,184.7L167.8,184.7L167.8,152.6L171,152.6L183.4,172.2L195.8,152.6L199,152.6L199,184.7L194.3,184.7L194.3,163L185,177.8ZM152.8,169.9L152.8,184.6L148.2,184.6L148.2,169.9L137.2,152.5L142.4,152.5L150.6,165.4L158.8,152.5L164,152.5L152.8,169.9ZM127.7,180.2L141.9,180.2L141.9,184.6L123.1,184.6L123.1,152.5L127.7,152.5L127.7,180.2ZM102.6,180.7C109.2,180.7 114,175.5 114,168.6C114,161.6 109.1,156.5 102.6,156.5C96,156.5 91.2,161.8 91.2,168.6C91.1,175.6 96,180.7 102.6,180.7ZM102.6,152C111.6,152 118.7,159.2 118.7,168.5C118.7,177.8 111.7,185 102.6,185C93.5,185 86.5,177.8 86.5,168.5C86.5,159.2 93.5,152 102.6,152Z" style="fill:rgb(102,205,214);fill-rule:nonzero;"/>
    </g>
    <defs>
        <linearGradient id="_Linear1" x1="0" y1="0" x2="1" y2="0" gradientUnits="userSpaceOnUse" gradientTransform="matrix(5.3789e-15,87.8441,-87.8441,5.3789e-15,177.006,52.1535)"><stop offset="0" style="stop-color:rgb(0,171,189);stop-opacity:1"/><stop offset="0.74" style="stop-color:rgb(195,177,214);stop-opacity:1"/><stop offset="1" style="stop-color:rgb(195,177,214);stop-opacity:0"/></linearGradient>
    </defs>
</svg>
